X:6287
T:Gitane - Valse/Walzer/Waltz
C:Eric Montbel
Z:abc transcription Simon Wascher
N:please mail errors to simon.wascher@chello.at
M:3/4
L:1/4
K:Gmixo
d|:dBd|GBd|gf>e|dBd|
cAc|f>ed|1cBc|d/e/fe:|2cBA|G2d||
|:dB/d/B/d/|gfe|dB/d/B/d/|gfe|
cA/c/A/c/|fed|1cBc|d/e/fe:|2cBA|G2||


